public/svg/telegram-small.svg

<svg width="22" height="18" viewBox="0 0 22 18" fill="none" xmlns="http://www.w3.org/2000/svg">
<path d="M1.45056 7.83904C1.45056 7.83904 10.7384 3.88771 13.9595 2.49634C15.1943 1.93984 19.3819 0.158893 19.3819 0.158893C19.3819 0.158893 21.3146 -0.620205 21.1535 1.27197C21.0998 2.05114 20.6704 4.77811 20.2409 7.72774C19.5966 11.9018 18.8987 16.4653 18.8987 16.4653C18.8987 16.4653 18.7913 17.7453 17.8787 17.9679C16.966 18.1905 15.4627 17.1888 15.1943 16.9662C14.9795 16.7993 11.1678 14.2948 9.77198 13.0704C9.39616 12.7365 8.96669 12.0687 9.82563 11.2896C11.7584 9.45301 14.0669 7.17125 15.4627 5.72427C16.107 5.05639 16.7512 3.49812 14.0669 5.39029C10.2552 8.11733 6.4971 10.6774 6.4971 10.6774C6.4971 10.6774 5.63809 11.2339 4.02752 10.733C2.41686 10.2322 0.53783 9.56431 0.53783 9.56431C0.53783 9.56431 -0.750574 8.72952 1.45056 7.83904Z" fill="#34AADF"/>
</svg>

<svg xmlns="http://www.w3.org/2000/svg" width="22" height="18" fill="none"><path fill="#34AADF" d="M1.45 7.839s9.288-3.951 12.51-5.343C15.194 1.94 19.382.16 19.382.16s1.933-.78 1.771 1.113c-.053.78-.483 3.506-.912 6.456-.644 4.174-1.342 8.737-1.342 8.737s-.108 1.28-1.02 1.503c-.913.223-2.416-.78-2.685-1.002-.215-.167-4.026-2.671-5.422-3.896-.376-.334-.805-1.001.054-1.78a208 208 0 0 0 5.637-5.566c.644-.668 1.288-2.226-1.396-.334-3.812 2.727-7.57 5.287-7.57 5.287s-.859.557-2.47.056c-1.61-.5-3.49-1.169-3.49-1.169S-.75 8.73 1.452 7.84"/></svg>
